X: 8
T: DREAM
C: J.Mercer
M: C
L: 1/8
K: Bb
|:"Bb"B8- | B2cB c2B2 | "A7"A8- | A8 | "Bb"G8- | G2AG A2G2 | "G7"F8- | F8 | "Eb"E8- | E2FE "Ebm"F2E2 |
[1"Bb"D2F2 G2A2- | A8 | "C7"=E2G2 A2B2- | B6 A2 | "Cm7"G2A2 B2c2- | "F7"c4 d4 :|
[2"Bb"D2F2 "D7"G2[A2-^F2-D2-] | [A4^F4D4] "Gm7"[B4G4=F4] | "Cm"[c8G8E4] | "F7-9"[d8_G8E8] | "Bb"[B8-F8-D8-] | [B6F6D6] z2 |]


